src/svg/Chat_20.svg

<svg viewBox="0 0 20 20"><path d="M2 3h16v12h-7l-5 3v-3H2V3zm1 1v10h4v2.234L10.723 14H17V4H3z" fill-rule="nonzero"/></svg>

<?xml version="1.0" encoding="UTF-8"?>
<svg width="20px" height="20px" viewBox="0 0 20 20" version="1.1" xmlns="http://www.w3.org/2000/svg" xmlns:xlink="http://www.w3.org/1999/xlink">
    <!-- Generator: Sketch 56.3 (81716) - https://sketch.com -->
    <title>Icons/Chat/20</title>
    <desc>Created with Sketch.</desc>
    <g id="Icons/Chat/20" stroke="none" stroke-width="1" fill="none" fill-rule="evenodd">
        <path d="M2,3 L18,3 L18,15 L11,15 L6,18 L6,15 L2,15 L2,3 Z M3,4 L3,14 L7,14 L7,16.2338096 L10.723016,14 L17,14 L17,4 L3,4 Z" id="Rectangle" fill="#000000" fill-rule="nonzero"></path>
    </g>
</svg>
